Adwaita++/actions/22/akonadi-phone-home.svg

<svg height="22" viewBox="0 0 22 22" width="22" xmlns="http://www.w3.org/2000/svg">
  <path d="m8 2-7 7h2v6h3v-4h4v4h3v-6h2z" fill="#444" transform="translate(3 3)"/>
</svg>

<svg xmlns="http://www.w3.org/2000/svg" width="22" height="22" viewBox="0 0 22 22">
 <defs>
  <style id="current-color-scheme" type="text/css">
   .ColorScheme-Text { color:#444444; } .ColorScheme-Highlight { color:#4285f4; }
  </style>
 </defs>
 <path style="fill:currentColor" class="ColorScheme-Text" d="M 8 2 L 1 9 L 3 9 L 3 15 L 6 15 L 6 11 L 10 11 L 10 15 L 13 15 L 13 9 L 15 9 L 8 2 z" transform="translate(3 3)"/>
</svg>
